X:2335
T:Heave and Go
L:1/8
M:2/4
O:Shetland
Z:Richard Robinson 
%%TUNEURL: http://www.leeds.ac.uk/music/Info/RRTuneBk/gettune/000009ba.html
%%ID:000009ba
K:G
D2 D>E|DG, GF/E/|DG, B,D|BG GB|\
D2 D>E|DG, GF/E/|DG, B,D|BG G2::
d>c Bd|dB g2|d>c Bd|dB gf/e/|\
dg fd|ed dB|c2 BA|G2AB:|
